tools/download-figma-icons/icons/solid/pin.svg

<svg width="24" height="24" viewBox="0 0 24 24" fill="none" xmlns="http://www.w3.org/2000/svg">
<path fill-rule="evenodd" clip-rule="evenodd" d="M4.45866 13.8822L4.50471 13.9475C4.56025 14.0296 4.6185 14.1103 4.6781 14.1977L11.2961 23.5637C11.4891 23.8372 11.8054 24 12.1441 24C12.4827 24 12.799 23.8372 12.992 23.5637L19.5955 14.2041C19.6588 14.117 19.7197 14.0323 19.7807 13.9539L19.8217 13.8942C21.0174 12.0726 21.5044 9.88734 21.1949 7.73982C20.885 5.59129 19.799 3.62624 18.1363 2.2049C16.4736 0.781887 14.3452 0 12.1427 0C9.9402 0 7.81186 0.781887 6.14914 2.2049C4.48643 3.62624 3.40041 5.59129 3.0909 7.73982C2.78138 9.88734 3.26801 12.0726 4.46374 13.8942L4.45866 13.8822ZM12.1441 5.25906C13.6852 5.25906 15.074 6.17237 15.6642 7.57437C16.2541 8.97769 15.9273 10.5908 14.8373 11.6646C13.7485 12.7384 12.1095 13.0589 10.6862 12.4778C9.26292 11.8978 8.33438 10.5285 8.33438 9.01172C8.33438 6.93858 10.0394 5.25906 12.1441 5.25906Z" fill="black"/>
</svg>

<svg width="24" height="24" viewBox="0 0 24 24" fill="none" xmlns="http://www.w3.org/2000/svg"><path fill-rule="evenodd" clip-rule="evenodd" d="m4.459 13.882.046.066c.055.082.114.162.173.25l6.618 9.366c.193.273.51.436.848.436.339 0 .655-.163.848-.436l6.604-9.36c.063-.087.124-.172.185-.25l.04-.06a8.895 8.895 0 0 0 1.374-6.154 8.968 8.968 0 0 0-3.059-5.535A9.218 9.218 0 0 0 12.143 0a9.22 9.22 0 0 0-5.994 2.205A8.965 8.965 0 0 0 3.091 7.74a8.894 8.894 0 0 0 1.373 6.154l-.005-.012Zm7.685-8.623a3.81 3.81 0 0 1 3.52 2.315 3.712 3.712 0 0 1-.827 4.09 3.85 3.85 0 0 1-4.15.814 3.752 3.752 0 0 1-2.353-3.466c0-2.073 1.705-3.753 3.81-3.753Z" fill="currentColor"/></svg>
